X:1
T: Bonnie Bessie Lee
C:
R:Strathspey
Q:128
K:G
M:4/4
L:1/16
|:e2|d3B G3B d4 d3e|g3f gb3 e4 e3f|g3a g3e dB3 g3d|c3B A3G A6e2|
d3B G3B d4 d3e|g3f gb3 e4 e3f|g3a g3e dB3 g3d|c3B A3G A4 g3a|
b3a g3B d3e g3a|b3a g3B d4 B3A|G3A Bd3 g4 ((3g2a2b2)|c'3b a3g a4 g3a|
b3a g3B d3e g3a|b3a g3B d4 ((3g2a2b2)|c'3b a3g e3f g3e|db3 a3b g6:|
